docs/img/card-product/novelty-label.svg

<svg width="70" height="24" viewBox="0 0 70 24" fill="none" xmlns="http://www.w3.org/2000/svg">
<rect width="70" height="24" rx="2" fill="#4CAF50"/>
<path d="M15.086 7.06V17H14.12V12.352H8.226V17H7.246V7.06H8.226V11.484H14.12V7.06H15.086ZM20.3846 17.14C19.8619 17.14 19.3766 17.042 18.9286 16.846C18.4899 16.6407 18.1072 16.3653 17.7806 16.02C17.4632 15.6653 17.2159 15.264 17.0386 14.816C16.8612 14.3587 16.7726 13.878 16.7726 13.374C16.7726 12.8513 16.8612 12.366 17.0386 11.918C17.2159 11.4607 17.4679 11.0593 17.7946 10.714C18.1212 10.3593 18.5039 10.084 18.9426 9.888C19.3906 9.68267 19.8759 9.58 20.3986 9.58C20.9212 9.58 21.4019 9.68267 21.8406 9.888C22.2792 10.084 22.6619 10.3593 22.9886 10.714C23.3152 11.0593 23.5672 11.4607 23.7446 11.918C23.9219 12.366 24.0106 12.8513 24.0106 13.374C24.0106 13.878 23.9219 14.3587 23.7446 14.816C23.5672 15.264 23.3152 15.6653 22.9886 16.02C22.6712 16.3653 22.2886 16.6407 21.8406 16.846C21.4019 17.042 20.9166 17.14 20.3846 17.14ZM17.7386 13.388C17.7386 13.9293 17.8552 14.424 18.0886 14.872C18.3312 15.3107 18.6532 15.6607 19.0546 15.922C19.4559 16.174 19.8992 16.3 20.3846 16.3C20.8699 16.3 21.3132 16.1693 21.7146 15.908C22.1159 15.6467 22.4379 15.292 22.6806 14.844C22.9232 14.3867 23.0446 13.892 23.0446 13.36C23.0446 12.8187 22.9232 12.324 22.6806 11.876C22.4379 11.428 22.1159 11.0733 21.7146 10.812C21.3132 10.5507 20.8699 10.42 20.3846 10.42C19.8992 10.42 19.4559 10.5553 19.0546 10.826C18.6626 11.0967 18.3452 11.456 18.1026 11.904C17.8599 12.3427 17.7386 12.8373 17.7386 13.388ZM25.5887 17V9.706H29.2287C29.6394 9.706 29.9847 9.79467 30.2647 9.972C30.5447 10.14 30.7547 10.3593 30.8947 10.63C31.0441 10.9007 31.1187 11.19 31.1187 11.498C31.1187 11.89 31.0254 12.2447 30.8387 12.562C30.6521 12.87 30.3814 13.1033 30.0267 13.262C30.4467 13.3833 30.7874 13.6027 31.0487 13.92C31.3101 14.2373 31.4407 14.62 31.4407 15.068C31.4407 15.46 31.3427 15.8007 31.1467 16.09C30.9601 16.3793 30.6987 16.6033 30.3627 16.762C30.0361 16.9207 29.6581 17 29.2287 17H25.5887ZM26.4987 16.314H29.2007C29.4434 16.314 29.6627 16.2533 29.8587 16.132C30.0641 16.0013 30.2227 15.8333 30.3347 15.628C30.4561 15.4227 30.5167 15.208 30.5167 14.984C30.5167 14.7413 30.4607 14.522 30.3487 14.326C30.2367 14.1207 30.0874 13.9573 29.9007 13.836C29.7141 13.7147 29.4994 13.654 29.2567 13.654H26.4987V16.314ZM26.4987 12.996H28.9767C29.2194 12.996 29.4341 12.9307 29.6207 12.8C29.8074 12.6693 29.9521 12.5013 30.0547 12.296C30.1574 12.0907 30.2087 11.876 30.2087 11.652C30.2087 11.316 30.0967 11.022 29.8727 10.77C29.6581 10.518 29.3781 10.392 29.0327 10.392H26.4987V12.996ZM33.0809 17V9.72H34.0329V15.712L38.4709 9.706H39.3249V17H38.3729V11.106L34.0049 17H33.0809ZM41.3934 17V9.706H42.3454V12.842H46.5174V9.706H47.4694V17H46.5174V13.696H42.3454V17H41.3934ZM49.5555 17V9.706H50.5075V12.828H51.5995L54.0495 9.706H55.1415L52.3555 13.248L55.4915 17H54.3715L51.5995 13.71H50.5075V17H49.5555ZM56.2276 14.9C56.2276 14.4427 56.3583 14.0507 56.6196 13.724C56.881 13.388 57.2403 13.1313 57.6976 12.954C58.1643 12.7673 58.701 12.674 59.3076 12.674C59.6623 12.674 60.031 12.702 60.4136 12.758C60.7963 12.814 61.137 12.898 61.4356 13.01V12.394C61.4356 11.778 61.2536 11.288 60.8896 10.924C60.5256 10.56 60.0216 10.378 59.3776 10.378C58.9856 10.378 58.5983 10.4527 58.2156 10.602C57.8423 10.742 57.4503 10.952 57.0396 11.232L56.6756 10.56C57.1516 10.2333 57.6183 9.99067 58.0756 9.832C58.533 9.664 58.9996 9.58 59.4756 9.58C60.3716 9.58 61.081 9.83667 61.6036 10.35C62.1263 10.8633 62.3876 11.5727 62.3876 12.478V15.852C62.3876 15.9827 62.4156 16.0807 62.4716 16.146C62.5276 16.202 62.6163 16.2347 62.7376 16.244V17C62.635 17.0093 62.5463 17.0187 62.4716 17.028C62.397 17.0373 62.341 17.0373 62.3036 17.028C62.0703 17.0187 61.893 16.944 61.7716 16.804C61.6503 16.664 61.585 16.5147 61.5756 16.356L61.5616 15.824C61.235 16.244 60.8103 16.5707 60.2876 16.804C59.765 17.028 59.233 17.14 58.6916 17.14C58.225 17.14 57.8003 17.042 57.4176 16.846C57.0443 16.6407 56.7503 16.37 56.5356 16.034C56.3303 15.6887 56.2276 15.3107 56.2276 14.9ZM61.1136 15.46C61.2163 15.3293 61.2956 15.2033 61.3516 15.082C61.4076 14.9607 61.4356 14.8533 61.4356 14.76V13.696C61.1183 13.5747 60.787 13.4813 60.4416 13.416C60.1056 13.3507 59.765 13.318 59.4196 13.318C58.7383 13.318 58.1876 13.4533 57.7676 13.724C57.3476 13.9947 57.1376 14.3633 57.1376 14.83C57.1376 15.1007 57.2076 15.3573 57.3476 15.6C57.4876 15.8333 57.693 16.0293 57.9636 16.188C58.2343 16.3373 58.5516 16.412 58.9156 16.412C59.373 16.412 59.7976 16.3233 60.1896 16.146C60.591 15.9687 60.899 15.74 61.1136 15.46Z" fill="white"/>
</svg>

<svg width="70" height="24" fill="none" xmlns="http://www.w3.org/2000/svg"><rect width="70" height="24" rx="2" fill="#4CAF50"/><path d="M15.086 7.06V17h-.966v-4.648H8.226V17h-.98V7.06h.98v4.424h5.894V7.06h.966zm5.299 10.08a3.592 3.592 0 01-1.456-.294 3.756 3.756 0 01-1.148-.826 3.995 3.995 0 01-.742-1.204 3.952 3.952 0 01-.266-1.442c0-.523.088-1.008.266-1.456.177-.457.429-.859.756-1.204.326-.355.709-.63 1.148-.826a3.452 3.452 0 011.456-.308 3.36 3.36 0 011.442.308 3.47 3.47 0 011.148.826c.326.345.578.747.756 1.204.177.448.266.933.266 1.456 0 .504-.09.985-.266 1.442-.178.448-.43.85-.756 1.204-.318.345-.7.62-1.148.826a3.53 3.53 0 01-1.456.294zm-2.646-3.752c0 .541.116 1.036.35 1.484.242.439.564.789.966 1.05a2.45 2.45 0 001.33.378c.485 0 .928-.13 1.33-.392.4-.261.723-.616.966-1.064.242-.457.364-.952.364-1.484 0-.541-.122-1.036-.364-1.484a2.879 2.879 0 00-.966-1.064 2.387 2.387 0 00-1.33-.392c-.486 0-.93.135-1.33.406-.392.27-.71.63-.952 1.078a3.013 3.013 0 00-.364 1.484zM25.589 17V9.706h3.64c.41 0 .756.089 1.036.266.28.168.49.387.63.658.15.27.224.56.224.868 0 .392-.094.747-.28 1.064a1.76 1.76 0 01-.812.7c.42.121.76.34 1.022.658.261.317.392.7.392 1.148 0 .392-.098.733-.294 1.022-.187.29-.448.513-.784.672a2.565 2.565 0 01-1.134.238h-3.64zm.91-.686H29.2c.242 0 .462-.06.658-.182.205-.13.364-.299.476-.504a1.302 1.302 0 00.014-1.302 1.335 1.335 0 00-.448-.49 1.155 1.155 0 00-.644-.182h-2.758v2.66zm0-3.318h2.478c.242 0 .457-.065.644-.196a1.34 1.34 0 00.434-.504 1.43 1.43 0 00.154-.644c0-.336-.112-.63-.336-.882a1.05 1.05 0 00-.84-.378h-2.534v2.604zM33.08 17V9.72h.952v5.992l4.438-6.006h.854V17h-.952v-5.894L34.005 17h-.924zm8.312 0V9.706h.952v3.136h4.172V9.706h.952V17h-.952v-3.304h-4.172V17h-.952zm8.163 0V9.706h.952v3.122h1.091l2.45-3.122h1.093l-2.787 3.542L55.492 17h-1.12l-2.773-3.29h-1.091V17h-.953zm6.672-2.1c0-.457.13-.85.392-1.176.261-.336.62-.593 1.078-.77.466-.187 1.003-.28 1.61-.28.354 0 .723.028 1.106.084.382.056.723.14 1.022.252v-.616c0-.616-.182-1.106-.546-1.47-.364-.364-.868-.546-1.512-.546-.392 0-.78.075-1.162.224-.374.14-.766.35-1.176.63l-.364-.672c.476-.327.942-.57 1.4-.728a4.031 4.031 0 011.4-.252c.896 0 1.605.257 2.128.77.522.513.784 1.223.784 2.128v3.374c0 .13.028.229.084.294.056.056.144.089.266.098V17c-.103.01-.192.019-.266.028a.496.496 0 01-.168 0c-.234-.01-.411-.084-.532-.224a.744.744 0 01-.196-.448l-.014-.532c-.327.42-.752.747-1.274.98a4.016 4.016 0 01-1.596.336 2.75 2.75 0 01-1.274-.294 2.39 2.39 0 01-.882-.812 2.178 2.178 0 01-.308-1.134zm4.886.56a1.95 1.95 0 00.238-.378.786.786 0 00.084-.322v-1.064a5.79 5.79 0 00-2.016-.378c-.682 0-1.232.135-1.652.406-.42.27-.63.64-.63 1.106 0 .27.07.527.21.77.14.233.345.43.616.588.27.15.588.224.952.224a3.06 3.06 0 001.274-.266c.401-.177.709-.406.924-.686z" fill="#fff"/></svg>
